X:1
T:Title
%%score 1 2 3 4
L:1/8
M:3/2
K:C
V:1 treble nm="Choir Aahs"
V:2 bass nm="Choir Aahs"
V:3 bass nm="Choir Aahs"
V:4 bass nm="Choir Aahs"
V:1
 G4 | G8 E4 | D8 G4 | A8 A4 | G8 B4 | c8 B4 | c8 d4 | d8 d4 | B8 B4 | e8 e4 | c8 d4 | B8 B4 | %12
 B4 c2 d2 e4 | d8 d4 | c12 |] %15
V:2
 C,4 | G,8 G,4 | G,8 G,4 | E,8 F,4 | G,8 G,4 | E,8 F,4 | E,4 D,4 D,4 | D,8 D,4 | E,8 D,4 | %9
 C,8 G,4 | F,4 A,4 F,4 | G,8 G,4 | G,8 E,4 | F,3 E, D,4 D,4 | E,12 |] %15
V:3
 G,4 | E,3 F, G,4 G,4 | B,8 G,4 | C3 D E4 F4 | D8 D4 | E3 D C4 D4 | C4[K:bass] B,4 A,4 | G,8 G,4 | %8
 C3[K:treble] D E4 E4 | E8 C4 | A,8 F4 | D8 D4 | E8 C4 | D8 B,4 | C12 |] %15
V:4
 C,4 | E,3 D, C,3 D, E,3 F, | G,8 G,4 | C3 B, A,4 D,4 | G,8 G,4 | C3 D E4 B,4 | C4 D4[K:bass] D,4 | %7
 G,8 G,4 | F,3 E, E,4 G,4 | C8 C,4 | F,4 E,4 D,4 | G,8 G,4 | E,3 D, C,4 E,4 | G,8 G,,4 | C,12 |] %15

